preferences/22/preferences-devices-scanner.svg

<?xml version="1.0" encoding="UTF-8" standalone="no"?>
<!-- Created with Inkscape (http://www.inkscape.org/) -->

<svg
   width="22"
   height="22"
   version="1.1"
   viewBox="0 0 22 22"
   id="svg22"
   sodipodi:docname="preferences-devices-scanner.svg"
   inkscape:version="1.1.2 (0a00cf5339, 2022-02-04)"
   xmlns:inkscape="http://www.inkscape.org/namespaces/inkscape"
   xmlns:sodipodi="http://sodipodi.sourceforge.net/DTD/sodipodi-0.dtd"
   xmlns:xlink="http://www.w3.org/1999/xlink"
   xmlns="http://www.w3.org/2000/svg"
   xmlns:svg="http://www.w3.org/2000/svg">
  <sodipodi:namedview
     id="namedview24"
     pagecolor="#ffffff"
     bordercolor="#666666"
     borderopacity="1.0"
     inkscape:showpageshadow="2"
     inkscape:pageopacity="0.0"
     inkscape:pagecheckerboard="0"
     inkscape:deskcolor="#d1d1d1"
     showgrid="false"
     inkscape:zoom="25.62"
     inkscape:cx="-2.0296643"
     inkscape:cy="16.783763"
     inkscape:window-width="3440"
     inkscape:window-height="1356"
     inkscape:window-x="0"
     inkscape:window-y="0"
     inkscape:window-maximized="1"
     inkscape:current-layer="svg22"
     inkscape:pageshadow="2" />
  <defs
     id="defs12">
    <linearGradient
       id="linearGradient1005-3-3"
       x1="5.2535"
       x2="9.3823996"
       y1="15.383"
       y2="2.9421"
       gradientTransform="matrix(0.99999,0,0,0.99999,1.632,-0.61743)"
       gradientUnits="userSpaceOnUse">
      <stop
         stop-color="#fa8200"
         offset="0"
         id="stop2" />
      <stop
         stop-color="#ff9600"
         offset=".36953"
         id="stop4" />
      <stop
         stop-color="#ffb400"
         offset="1"
         id="stop6" />
    </linearGradient>
    <filter
       id="filter4014"
       x="-0.062499933"
       y="-0.057692993"
       width="1.1249999"
       height="1.115386"
       color-interpolation-filters="sRGB">
      <feGaussianBlur
         stdDeviation="1.093751"
         id="feGaussianBlur9" />
    </filter>
    <linearGradient
       inkscape:collect="always"
       xlink:href="#linearGradient3487"
       id="linearGradient3403"
       gradientUnits="userSpaceOnUse"
       x1="6.9491749"
       y1="4.5549412"
       x2="11.215498"
       y2="59.052471" />
    <linearGradient
       id="linearGradient3487">
      <stop
         style="stop-color:#32373c;stop-opacity:1"
         offset="0"
         id="stop3481" />
      <stop
         id="stop3483"
         offset="0.36804965"
         style="stop-color:#1a1a1a;stop-opacity:1" />
      <stop
         style="stop-color:#31363b;stop-opacity:1"
         offset="1"
         id="stop3485" />
    </linearGradient>
    <linearGradient
       inkscape:collect="always"
       xlink:href="#linearGradient20604"
       id="linearGradient20558"
       gradientUnits="userSpaceOnUse"
       x1="25.802212"
       y1="20.373846"
       x2="25.111048"
       y2="58.912758" />
    <linearGradient
       id="linearGradient20604">
      <stop
         id="stop20598"
         offset="0"
         style="stop-color:#3d3d3d;stop-opacity:1" />
      <stop
         style="stop-color:#000000;stop-opacity:1"
         offset="0.61772454"
         id="stop20600" />
      <stop
         id="stop20602"
         offset="1"
         style="stop-color:#3d3d3d;stop-opacity:1" />
    </linearGradient>
    <filter
       inkscape:collect="always"
       style="color-interpolation-filters:sRGB"
       id="filter20720"
       x="-0.017024755"
       y="-0.016457183"
       width="1.0340491"
       height="1.0329144">
      <feGaussianBlur
         inkscape:collect="always"
         stdDeviation="0.14745661"
         id="feGaussianBlur20722" />
    </filter>
    <linearGradient
       gradientTransform="translate(0.36067797,-0.13016949)"
       xlink:href="#linearGradient4555"
       id="linearGradient4557"
       x1="43.499737"
       y1="64.011795"
       x2="44.141731"
       y2="0.30621234"
       gradientUnits="userSpaceOnUse" />
    <linearGradient
       id="linearGradient4555">
      <stop
         style="stop-color:#141618;stop-opacity:1"
         offset="0"
         id="stop4551" />
      <stop
         id="stop4559"
         offset="0.51820582"
         style="stop-color:#686868;stop-opacity:1" />
      <stop
         style="stop-color:#31363b;stop-opacity:1"
         offset="1"
         id="stop4553" />
    </linearGradient>
    <filter
       style="color-interpolation-filters:sRGB"
       id="filter4601"
       x="-0.030244762"
       width="1.0604895"
       y="-0.030100647"
       height="1.0602013">
      <feGaussianBlur
         stdDeviation="0.014790289"
         id="feGaussianBlur4603" />
    </filter>
    <linearGradient
       id="d"
       gradientTransform="matrix(1,0,0,-1,0,-8)"
       gradientUnits="userSpaceOnUse"
       x1="22"
       x2="22"
       xlink:href="#c"
       y1="-13"
       y2="-10" />
    <linearGradient
       id="c">
      <stop
         offset="0"
         stop-color="#2f3943"
         id="stop12" />
      <stop
         offset="1"
         stop-color="#4d5662"
         id="stop14" />
    </linearGradient>
    <linearGradient
       id="e"
       gradientUnits="userSpaceOnUse"
       x1="16"
       x2="16"
       y1="3.2"
       y2="6">
      <stop
         offset="0"
         stop-color="#18222a"
         id="stop17" />
      <stop
         offset="1"
         stop-color="#566069"
         id="stop19" />
    </linearGradient>
    <linearGradient
       id="f"
       gradientTransform="matrix(0.75,0,0,0.6,-290.429,-297.279)"
       gradientUnits="userSpaceOnUse"
       x1="387.23801"
       x2="387.23801"
       xlink:href="#a"
       y1="543.79797"
       y2="503.798" />
    <linearGradient
       id="a">
      <stop
         offset="0"
         stop-color="#c6cdd1"
         id="stop7" />
      <stop
         offset="1"
         stop-color="#e0e5e7"
         id="stop9" />
    </linearGradient>
    <linearGradient
       id="g"
       gradientTransform="matrix(0.68906,0,0,0.77577,111.067,134.313)"
       gradientUnits="userSpaceOnUse"
       x1="425.95001"
       x2="425.95001"
       xlink:href="#a"
       y1="508.509"
       y2="536.86798" />
    <linearGradient
       id="h"
       gradientTransform="matrix(0.625,0,0,0.71429,137.214,166.657)"
       gradientUnits="userSpaceOnUse"
       x1="434.17099"
       x2="434.17099"
       y1="509.798"
       y2="534.99799">
      <stop
         offset="0"
         stop-color="#2e5d89"
         id="stop24" />
      <stop
         offset="1"
         stop-color="#1b92f4"
         id="stop26" />
    </linearGradient>
    <linearGradient
       id="i"
       gradientTransform="matrix(0.625,0,0,0.66667,137.214,887.666)"
       gradientUnits="userSpaceOnUse"
       x1="418.17099"
       x2="418.17099"
       xlink:href="#b"
       y1="-521.79797"
       y2="-518.79797" />
    <linearGradient
       id="b">
      <stop
         offset="0"
         stop-color="#84cbfe"
         id="stop2-7" />
      <stop
         offset="1"
         stop-color="#84cbfe"
         stop-opacity="0"
         id="stop4-6" />
    </linearGradient>
    <linearGradient
       id="j"
       gradientTransform="matrix(0.625,0,0,0.66667,137.214,-190.93)"
       gradientUnits="userSpaceOnUse"
       x1="418.17099"
       x2="418.17099"
       xlink:href="#b"
       y1="-521.79797"
       y2="-518.79797" />
    <linearGradient
       id="k"
       gradientTransform="matrix(0.69397,0,0,0.6777,-267.043,-339.051)"
       gradientUnits="userSpaceOnUse"
       x1="390.57101"
       x2="417.95001"
       y1="507.67401"
       y2="535.71002">
      <stop
         offset="0"
         id="stop31" />
      <stop
         offset="1"
         stop-opacity="0"
         id="stop33" />
    </linearGradient>
    <linearGradient
       id="l"
       gradientUnits="userSpaceOnUse"
       x1="29"
       x2="5"
       xlink:href="#a"
       y1="31"
       y2="25" />
    <linearGradient
       id="m"
       gradientUnits="userSpaceOnUse"
       x1="22"
       x2="22"
       xlink:href="#c"
       y1="29"
       y2="27" />
  </defs>
  <g
     id="g905"
     transform="matrix(0.67445646,0,0,0.6665741,1.4895608,0.43724211)">
    <path
       d="M 4,5 V 3 C 4,2.446 4.446,2 5,2 h 22 c 0.554,0 1,0.446 1,1 v 2 z"
       fill="url(#d)"
       id="path39"
       style="fill:url(#d)" />
    <path
       d="M 4,3 H 28 V 5 H 4 Z"
       fill="url(#e)"
       id="path41"
       style="fill:url(#e)" />
    <path
       d="M 4,5 H 28 V 29 H 4 Z"
       fill="url(#f)"
       id="path43"
       style="fill:url(#f)" />
    <g
       stroke-linecap="round"
       stroke-linejoin="bevel"
       id="g57">
      <path
         d="m 381.571,529.798 h 22 v 20 h -22 z"
         fill="url(#g)"
         transform="translate(-376.571,-523.798)"
         id="path45"
         style="fill:url(#g)" />
      <path
         d="m 382.571,530.798 h 20 v 18 h -20 z"
         fill="url(#h)"
         transform="translate(-376.571,-523.798)"
         id="path47"
         style="fill:url(#h)" />
      <path
         d="m 6,15 h 20 v 1 H 6 Z"
         fill="#84cbfe"
         id="path49" />
      <path
         d="m 382.571,539.798 h 20 v 2 h -20 z"
         fill="url(#i)"
         opacity="0.2"
         transform="translate(-376.571,-523.798)"
         id="path51"
         style="fill:url(#i)" />
      <path
         d="m 382.571,-538.798 h 20 v 2 h -20 z"
         fill="url(#j)"
         opacity="0.2"
         transform="matrix(1,0,0,-1,-376.571,-523.798)"
         id="path53"
         style="fill:url(#j)" />
      <path
         d="M 7,9 H 18 V 24 H 7 Z"
         fill="#eff0f1"
         id="path55" />
    </g>
    <path
       d="m 4,5 22,22 h 2 V 5 Z"
       fill="url(#k)"
       fill-rule="evenodd"
       opacity="0.2"
       id="path59"
       style="fill:url(#k)" />
    <path
       d="m 4,27 v 2 c 0,0.554 0.446,1 1,1 h 22 c 0.554,0 1,-0.446 1,-1 v -2 z"
       fill="url(#l)"
       id="path61"
       style="fill:url(#l)" />
    <path
       d="m 7,27 v 1 c 0,0.554 0.446,1 1,1 h 16 c 0.554,0 1,-0.446 1,-1 v -1 z"
       fill="url(#m)"
       id="path63"
       style="fill:url(#m)" />
    <circle
       cx="-27.5"
       cy="-23.5"
       fill="#11d116"
       r="0.5"
       transform="matrix(0,-1,-1,0,0,0)"
       id="circle65" />
    <path
       d="m 4,28 v 1 c 0,0.554 0.446,1 1,1 h 22 c 0.554,0 1,-0.446 1,-1 v -1 c 0,0.554 -0.446,1 -1,1 H 5 C 4.446,29 4,28.554 4,28 Z"
       fill="#292c2f"
       opacity="0.2"
       id="path67" />
  </g>
  <path
     style="display:inline;mix-blend-mode:normal;fill:url(#linearGradient3403);fill-opacity:1;stroke:url(#linearGradient20558);stroke-width:1.16242;stroke-linecap:butt;stroke-linejoin:round;stroke-miterlimit:4;stroke-dasharray:none;stroke-opacity:1;filter:url(#filter20720)"
     d="M 4.7043071,3.9814882 4.6913695,60.80196 H 58.59546 l 1.022155,-2.866369 c 0,0 -23.87537,0.766388 -32.844441,-4.140386 C 16.257548,48.042344 11.401114,4.0978197 11.401114,4.0978197 Z"
     id="path1686"
     sodipodi:nodetypes="ccccscc"
     transform="matrix(0.33340266,0,0,0.33340266,0.46568788,0.36315759)"
     inkscape:label="folder" />
  <rect
     style="display:inline;fill:none;fill-opacity:1;stroke:url(#linearGradient4557);stroke-width:3.71366;stroke-linejoin:round;stroke-miterlimit:7.8;stroke-dasharray:none;stroke-opacity:0.995146;filter:url(#filter4601)"
     id="rect4539"
     width="62.567089"
     height="62.866646"
     x="1.0323594"
     y="0.59551275"
     ry="6.2447233"
     rx="5.8029528"
     transform="matrix(0.31232586,0,0,0.31168927,1.0258585,1.0368629)"
     inkscape:label="contour" />
</svg>

<svg width="22" height="22" version="1.1" viewBox="0 0 22 22" xmlns="http://www.w3.org/2000/svg" xmlns:xlink="http://www.w3.org/1999/xlink">
<defs>
<linearGradient id="linearGradient3403" x1="6.9492" x2="11.215" y1="4.5549" y2="59.052" gradientUnits="userSpaceOnUse">
<stop style="stop-color:#32373c" offset="0"/>
<stop style="stop-color:#1a1a1a" offset=".36805"/>
<stop style="stop-color:#31363b" offset="1"/>
</linearGradient>
<linearGradient id="linearGradient20558" x1="25.802" x2="25.111" y1="20.374" y2="58.913" gradientUnits="userSpaceOnUse">
<stop style="stop-color:#3d3d3d" offset="0"/>
<stop offset=".61772"/>
<stop style="stop-color:#3d3d3d" offset="1"/>
</linearGradient>
<linearGradient id="linearGradient4557" x1="43.5" x2="44.142" y1="64.012" y2=".30621" gradientTransform="translate(.36068 -.13017)" gradientUnits="userSpaceOnUse">
<stop style="stop-color:#141618" offset="0"/>
<stop style="stop-color:#686868" offset=".51821"/>
<stop style="stop-color:#31363b" offset="1"/>
</linearGradient>
<linearGradient id="d" x1="22" x2="22" y1="-13" y2="-10" gradientTransform="matrix(1,0,0,-1,0,-8)" gradientUnits="userSpaceOnUse" xlink:href="#c"/>
<linearGradient id="c">
<stop stop-color="#2f3943" offset="0"/>
<stop stop-color="#4d5662" offset="1"/>
</linearGradient>
<linearGradient id="e" x1="16" x2="16" y1="3.2" y2="6" gradientUnits="userSpaceOnUse">
<stop stop-color="#18222a" offset="0"/>
<stop stop-color="#566069" offset="1"/>
</linearGradient>
<linearGradient id="f" x1="387.24" x2="387.24" y1="543.8" y2="503.8" gradientTransform="matrix(.75 0 0 .6 -290.43 -297.28)" gradientUnits="userSpaceOnUse" xlink:href="#a"/>
<linearGradient id="a">
<stop stop-color="#c6cdd1" offset="0"/>
<stop stop-color="#e0e5e7" offset="1"/>
</linearGradient>
<linearGradient id="g" x1="425.95" x2="425.95" y1="508.51" y2="536.87" gradientTransform="matrix(.68906 0 0 .77577 111.07 134.31)" gradientUnits="userSpaceOnUse" xlink:href="#a"/>
<linearGradient id="h" x1="434.17" x2="434.17" y1="509.8" y2="535" gradientTransform="matrix(.625 0 0 .71429 137.21 166.66)" gradientUnits="userSpaceOnUse">
<stop stop-color="#2e5d89" offset="0"/>
<stop stop-color="#1b92f4" offset="1"/>
</linearGradient>
<linearGradient id="i" x1="418.17" x2="418.17" y1="-521.8" y2="-518.8" gradientTransform="matrix(.625 0 0 .66667 137.21 887.67)" gradientUnits="userSpaceOnUse" xlink:href="#b"/>
<linearGradient id="b">
<stop stop-color="#84cbfe" offset="0"/>
<stop stop-color="#84cbfe" stop-opacity="0" offset="1"/>
</linearGradient>
<linearGradient id="j" x1="418.17" x2="418.17" y1="-521.8" y2="-518.8" gradientTransform="matrix(.625 0 0 .66667 137.21 -190.93)" gradientUnits="userSpaceOnUse" xlink:href="#b"/>
<linearGradient id="k" x1="390.57" x2="417.95" y1="507.67" y2="535.71" gradientTransform="matrix(.69397 0 0 .6777 -267.04 -339.05)" gradientUnits="userSpaceOnUse">
<stop offset="0"/>
<stop stop-opacity="0" offset="1"/>
</linearGradient>
<linearGradient id="l" x1="29" x2="5" y1="31" y2="25" gradientUnits="userSpaceOnUse" xlink:href="#a"/>
<linearGradient id="m" x1="22" x2="22" y1="29" y2="27" gradientUnits="userSpaceOnUse" xlink:href="#c"/>
</defs>
<g transform="matrix(.67446 0 0 .66657 1.4896 .43724)">
<path d="m4 5v-2c0-0.554 0.446-1 1-1h22c0.554 0 1 0.446 1 1v2z" fill="url(#d)" style="fill:url(#d)"/>
<path d="m4 3h24v2h-24z" fill="url(#e)" style="fill:url(#e)"/>
<path d="m4 5h24v24h-24z" fill="url(#f)" style="fill:url(#f)"/>
<g stroke-linecap="round" stroke-linejoin="bevel">
<path transform="translate(-376.57 -523.8)" d="m381.57 529.8h22v20h-22z" fill="url(#g)" style="fill:url(#g)"/>
<path transform="translate(-376.57 -523.8)" d="m382.57 530.8h20v18h-20z" fill="url(#h)" style="fill:url(#h)"/>
<path d="m6 15h20v1h-20z" fill="#84cbfe"/>
<path transform="translate(-376.57 -523.8)" d="m382.57 539.8h20v2h-20z" fill="url(#i)" opacity=".2" style="fill:url(#i)"/>
<path transform="matrix(1 0 0 -1 -376.57 -523.8)" d="m382.57-538.8h20v2h-20z" fill="url(#j)" opacity=".2" style="fill:url(#j)"/>
<path d="m7 9h11v15h-11z" fill="#eff0f1"/>
</g>
<path d="m4 5 22 22h2v-22z" fill="url(#k)" fill-rule="evenodd" opacity=".2" style="fill:url(#k)"/>
<path d="m4 27v2c0 0.554 0.446 1 1 1h22c0.554 0 1-0.446 1-1v-2z" fill="url(#l)" style="fill:url(#l)"/>
<path d="m7 27v1c0 0.554 0.446 1 1 1h16c0.554 0 1-0.446 1-1v-1z" fill="url(#m)" style="fill:url(#m)"/>
<circle transform="matrix(0,-1,-1,0,0,0)" cx="-27.5" cy="-23.5" r=".5" fill="#11d116"/>
<path d="m4 28v1c0 0.554 0.446 1 1 1h22c0.554 0 1-0.446 1-1v-1c0 0.554-0.446 1-1 1h-22c-0.554 0-1-0.446-1-1z" fill="#292c2f" opacity=".2"/>
</g>
<path transform="matrix(.3334 0 0 .3334 .46569 .36316)" d="m4.7043 3.9815-0.012938 56.82h53.904l1.0222-2.8664s-23.875 0.76639-32.844-4.1404c-10.516-5.7529-15.372-49.697-15.372-49.697z" style="fill:url(#linearGradient3403);mix-blend-mode:normal;stroke-linejoin:round;stroke-width:1.1624;stroke:url(#linearGradient20558)"/>
<rect transform="matrix(.31233 0 0 .31169 1.0259 1.0369)" x="1.0324" y=".59551" width="62.567" height="62.867" rx="5.803" ry="6.2447" style="fill:none;stroke-linejoin:round;stroke-miterlimit:7.8;stroke-opacity:.99515;stroke-width:3.7137;stroke:url(#linearGradient4557)"/>
</svg>
